src/categories-icons-sprite/categories/svg-cat-hats-men.svg

<svg width="35" height="21" viewBox="0 0 35 21" fill="none" xmlns="http://www.w3.org/2000/svg">
<path class="p-E0F4FF" d="M17.0081 9.04102C16.1511 9.04102 15.2741 9.06095 14.4171 9.10074C7.28161 9.45951 0 11.4328 0 15.0204C0 18.9469 8.59715 20.9999 17.0081 20.9999C25.4191 20.9999 34.0163 18.9469 34.0163 15.0204C34.0163 11.1139 25.4989 9.06101 17.0081 9.04102Z" fill="#B9DFFC"/>
<path class="p-BBDCFF" d="M34.016 15.0204C34.016 18.9469 25.4188 20.9999 17.0078 20.9999V9.04102C25.4986 9.06101 34.016 11.1139 34.016 15.0204Z" fill="#A1D1FD"/>
<path class="p-68544F" d="M28.1497 13.7088C24.5421 15.1637 21.2733 16.0208 17.0079 16.0208C12.5433 16.0208 9.27455 15.0841 5.86621 13.7088L6.84298 10.6953L10.2114 9.85822C12.4238 10.5758 14.7158 10.9346 17.0079 10.9346C19.3798 10.9346 21.7317 10.5559 24.0039 9.77856C25.7578 10.2569 27.1729 10.6555 27.1729 10.6953L28.1497 13.7088Z" fill="#58ADE5"/>
<path class="p-53433F" d="M28.1495 13.7088C24.542 15.1637 21.2732 16.0208 17.0078 16.0208V10.9346C19.3797 10.9346 21.7316 10.5559 24.0037 9.77856C25.7577 10.2569 27.1728 10.6555 27.1728 10.6953L28.1495 13.7088Z" fill="#4D98CB"/>
<path class="p-E0F4FF" d="M25.2804 3.08175C24.8219 1.26793 23.2074 0.0122477 21.3339 0.0122477C20.2377 0.0122477 19.2212 0.430873 18.4638 1.2082C18.0851 1.58689 17.547 2.69919 17.0088 2.69919C16.4707 2.69919 15.9326 1.58689 15.5539 1.2082C14.4974 0.151768 13.0225 -0.246927 11.6073 0.151767C10.1723 0.550395 9.11586 1.64662 8.73717 3.08175L6.84375 10.6954L7.64101 11.0343C10.6307 12.3099 13.7799 12.9477 17.0088 12.9477C20.2376 12.9477 23.3868 12.31 26.3765 11.0343L27.1737 10.6954L25.2804 3.08175Z" fill="#B9DFFC"/>
<path class="p-BBDCFF" d="M27.1728 10.6954L26.3756 11.0343C23.3859 12.3099 20.2366 12.9476 17.0078 12.9476V2.69915C17.546 2.69915 18.084 1.58685 18.4627 1.20816C19.2201 0.430833 20.2366 0.012207 21.3329 0.012207C23.2064 0.012207 24.8209 1.26789 25.2793 3.08171L27.1728 10.6954Z" fill="#A1D1FD"/>
</svg>

<svg width="35" height="21" fill="none" xmlns="http://www.w3.org/2000/svg"><path class="p-E0F4FF" d="M17.008 9.041c-.857 0-1.734.02-2.59.06C7.281 9.46 0 11.433 0 15.02 0 18.946 8.597 21 17.008 21s17.008-2.053 17.008-5.98c0-3.906-8.517-5.959-17.008-5.979z" fill="#B9DFFC"/><path class="p-BBDCFF" d="M34.016 15.02c0 3.927-8.597 5.98-17.008 5.98V9.04c8.49.02 17.008 2.073 17.008 5.98z" fill="#A1D1FD"/><path class="p-68544F" d="M28.15 13.709c-3.608 1.455-6.877 2.312-11.142 2.312-4.465 0-7.733-.937-11.142-2.312l.977-3.014 3.368-.837a22.02 22.02 0 006.797 1.077c2.372 0 4.724-.38 6.996-1.156 1.754.478 3.169.877 3.169.916l.977 3.014z" fill="#58ADE5"/><path class="p-53433F" d="M28.15 13.709c-3.608 1.455-6.877 2.312-11.142 2.312v-5.086c2.372 0 4.724-.38 6.996-1.156 1.754.478 3.169.877 3.169.916l.977 3.014z" fill="#4D98CB"/><path class="p-E0F4FF" d="M25.28 3.082a4.053 4.053 0 00-3.946-3.07 3.96 3.96 0 00-2.87 1.196c-.379.379-.917 1.491-1.455 1.491s-1.076-1.112-1.455-1.49C14.497.151 13.023-.248 11.607.151c-1.435.398-2.491 1.495-2.87 2.93l-1.893 7.613.797.34a23.726 23.726 0 009.368 1.913c3.229 0 6.378-.638 9.367-1.914l.798-.339-1.894-7.613z" fill="#B9DFFC"/><path class="p-BBDCFF" d="M27.173 10.695l-.797.34a23.726 23.726 0 01-9.368 1.913V2.699c.538 0 1.076-1.112 1.455-1.49a3.96 3.96 0 012.87-1.197 4.053 4.053 0 013.946 3.07l1.894 7.613z" fill="#A1D1FD"/></svg>
